images/icon/facebook-footer.svg

<svg width="25" height="24" viewBox="0 0 25 24" fill="none" xmlns="http://www.w3.org/2000/svg">
<path d="M12.4867 0C6.12428 0 0.966675 5.1576 0.966675 11.52C0.966675 17.8824 6.12428 23.04 12.4867 23.04C18.8491 23.04 24.0067 17.8824 24.0067 11.52C24.0067 5.1576 18.8491 0 12.4867 0ZM15.2155 7.9608H13.4839C13.2787 7.9608 13.0507 8.2308 13.0507 8.5896V9.84H15.2167L14.8891 11.6232H13.0507V16.9764H11.0071V11.6232H9.15308V9.84H11.0071V8.7912C11.0071 7.2864 12.0511 6.0636 13.4839 6.0636H15.2155V7.9608Z" fill="#9FB7D3"/>
</svg>

<svg width="25" height="24" fill="none" xmlns="http://www.w3.org/2000/svg"><path d="M12.487 0C6.124 0 .967 5.158.967 11.52c0 6.362 5.157 11.52 11.52 11.52 6.362 0 11.52-5.158 11.52-11.52C24.007 5.158 18.849 0 12.487 0zm2.729 7.96h-1.732c-.205 0-.433.27-.433.63v1.25h2.166l-.328 1.783h-1.838v5.353h-2.044v-5.353H9.153V9.84h1.854V8.791c0-1.505 1.044-2.727 2.477-2.727h1.732V7.96z" fill="#9FB7D3"/></svg>
